src/assets/img/createWalletSuccess/extension.svg

<svg width="17" height="17" viewBox="0 0 17 17" fill="none" xmlns="http://www.w3.org/2000/svg">
<path d="M14.375 8.25H13.25V5.25C13.25 4.425 12.575 3.75 11.75 3.75H8.75V2.625C8.75 1.59 7.91 0.75 6.875 0.75C5.84 0.75 5 1.59 5 2.625V3.75H2C1.175 3.75 0.5075 4.425 0.5075 5.25V8.1H1.625C2.7425 8.1 3.65 9.0075 3.65 10.125C3.65 11.2425 2.7425 12.15 1.625 12.15H0.5V15C0.5 15.825 1.175 16.5 2 16.5H4.85V15.375C4.85 14.2575 5.7575 13.35 6.875 13.35C7.9925 13.35 8.9 14.2575 8.9 15.375V16.5H11.75C12.575 16.5 13.25 15.825 13.25 15V12H14.375C15.41 12 16.25 11.16 16.25 10.125C16.25 9.09 15.41 8.25 14.375 8.25Z" fill="white"/>
</svg>

<svg fill="none" height="17" viewBox="0 0 17 17" width="17" xmlns="http://www.w3.org/2000/svg"><path d="m14.375 8.25h-1.125v-3c0-.825-.675-1.5-1.5-1.5h-3v-1.125c0-1.035-.84-1.875-1.875-1.875s-1.875.84-1.875 1.875v1.125h-3c-.825 0-1.4925.675-1.4925 1.5v2.85h1.1175c1.1175 0 2.025.9075 2.025 2.025s-.9075 2.025-2.025 2.025h-1.125v2.85c0 .825.675 1.5 1.5 1.5h2.85v-1.125c0-1.1175.9075-2.025 2.025-2.025s2.025.9075 2.025 2.025v1.125h2.85c.825 0 1.5-.675 1.5-1.5v-3h1.125c1.035 0 1.875-.84 1.875-1.875s-.84-1.875-1.875-1.875z" fill="#fff"/></svg>
